source/img/eye.svg

<svg width="32" height="22" viewBox="0 0 32 22" fill="none" xmlns="http://www.w3.org/2000/svg">
<path d="M16 7.25002C13.9289 7.25002 12.25 8.92895 12.25 11C12.25 13.0711 13.9289 14.75 16 14.75C18.071 14.75 19.75 13.0711 19.75 11C19.75 8.92895 18.071 7.25002 16 7.25002Z" fill="#CECFDB"/>
<path fill-rule="evenodd" clip-rule="evenodd" d="M16 0.166687C11.637 0.166687 7.71331 1.919 4.88599 4.08895C3.47048 5.17533 2.30902 6.3819 1.49411 7.55615C0.694727 8.70804 0.166626 9.91924 0.166626 11C0.166626 12.0808 0.694727 13.292 1.49411 14.4439C2.30902 15.6181 3.47048 16.8247 4.88599 17.9111C7.71331 20.081 11.637 21.8334 16 21.8334C20.3629 21.8334 24.2866 20.081 27.1139 17.9111C28.5294 16.8247 29.6909 15.6181 30.5058 14.4439C31.3052 13.292 31.8333 12.0808 31.8333 11C31.8333 9.91924 31.3052 8.70804 30.5058 7.55615C29.6909 6.3819 28.5294 5.17533 27.1139 4.08895C24.2866 1.919 20.3629 0.166687 16 0.166687ZM9.74996 11C9.74996 7.54824 12.5482 4.75002 16 4.75002C19.4517 4.75002 22.25 7.54824 22.25 11C22.25 14.4518 19.4517 17.25 16 17.25C12.5482 17.25 9.74996 14.4518 9.74996 11Z" fill="#CECFDB"/>
</svg>

<svg width="32" height="22" fill="none" xmlns="http://www.w3.org/2000/svg"><path d="M16 7.25a3.75 3.75 0 1 0 0 7.5 3.75 3.75 0 0 0 0-7.5Z" fill="#CECFDB"/><path fill-rule="evenodd" clip-rule="evenodd" d="M16 .167c-4.363 0-8.287 1.752-11.114 3.922C3.47 5.175 2.309 6.382 1.494 7.556.694 8.708.167 9.92.167 11c0 1.08.528 2.292 1.327 3.444.815 1.174 1.976 2.38 3.392 3.467 2.827 2.17 6.751 3.922 11.114 3.922s8.287-1.752 11.114-3.922c1.415-1.086 2.577-2.293 3.392-3.467.8-1.152 1.327-2.363 1.327-3.444 0-1.08-.528-2.292-1.327-3.444-.815-1.174-1.977-2.38-3.392-3.467C24.287 1.919 20.363.167 16 .167ZM9.75 11a6.25 6.25 0 1 1 12.5 0 6.25 6.25 0 0 1-12.5 0Z" fill="#CECFDB"/></svg>
